assets/img/icons/duotone-icons/Design/Bezier-curve.svg

<?xml version="1.0" encoding="UTF-8"?>
<svg width="24px" height="24px" viewBox="0 0 24 24" version="1.1" xmlns="http://www.w3.org/2000/svg" xmlns:xlink="http://www.w3.org/1999/xlink">
    <!-- Generator: Sketch 52.2 (67145) - http://www.bohemiancoding.com/sketch -->
    <title>Stockholm-icons / Design / Bezier-curve</title>
    <desc>Created with Sketch.</desc>
    <g id="Stockholm-icons-/-Design-/-Bezier-curve" stroke="none" stroke-width="1" fill="none" fill-rule="evenodd">
        <rect id="bound" x="0" y="0" width="24" height="24"></rect>
        <path d="M4.95312427,14.3025791 L3.04687573,13.6974209 C4.65100965,8.64439903 7.67317997,6 12,6 C16.32682,6 19.3489903,8.64439903 20.9531243,13.6974209 L19.0468757,14.3025791 C17.6880467,10.0222676 15.3768837,8 12,8 C8.62311633,8 6.31195331,10.0222676 4.95312427,14.3025791 Z M12,8 C12.5522847,8 13,7.55228475 13,7 C13,6.44771525 12.5522847,6 12,6 C11.4477153,6 11,6.44771525 11,7 C11,7.55228475 11.4477153,8 12,8 Z" id="Combined-Shape" fill="#335EEA" opacity="0.3"></path>
        <path d="M5.73243561,6 L9.17070571,6 C9.58254212,4.83480763 10.6937812,4 12,4 C13.3062188,4 14.4174579,4.83480763 14.8292943,6 L18.2675644,6 C18.6133738,5.40219863 19.2597176,5 20,5 C21.1045695,5 22,5.8954305 22,7 C22,8.1045695 21.1045695,9 20,9 C19.2597176,9 18.6133738,8.59780137 18.2675644,8 L14.8292943,8 C14.4174579,9.16519237 13.3062188,10 12,10 C10.6937812,10 9.58254212,9.16519237 9.17070571,8 L5.73243561,8 C5.38662619,8.59780137 4.74028236,9 4,9 C2.8954305,9 2,8.1045695 2,7 C2,5.8954305 2.8954305,5 4,5 C4.74028236,5 5.38662619,5.40219863 5.73243561,6 Z M12,8 C12.5522847,8 13,7.55228475 13,7 C13,6.44771525 12.5522847,6 12,6 C11.4477153,6 11,6.44771525 11,7 C11,7.55228475 11.4477153,8 12,8 Z M4,19 C2.34314575,19 1,17.6568542 1,16 C1,14.3431458 2.34314575,13 4,13 C5.65685425,13 7,14.3431458 7,16 C7,17.6568542 5.65685425,19 4,19 Z M4,17 C4.55228475,17 5,16.5522847 5,16 C5,15.4477153 4.55228475,15 4,15 C3.44771525,15 3,15.4477153 3,16 C3,16.5522847 3.44771525,17 4,17 Z M20,19 C18.3431458,19 17,17.6568542 17,16 C17,14.3431458 18.3431458,13 20,13 C21.6568542,13 23,14.3431458 23,16 C23,17.6568542 21.6568542,19 20,19 Z M20,17 C20.5522847,17 21,16.5522847 21,16 C21,15.4477153 20.5522847,15 20,15 C19.4477153,15 19,15.4477153 19,16 C19,16.5522847 19.4477153,17 20,17 Z" id="Combined-Shape" fill="#335EEA"></path>
    </g>
</svg>

<svg width="24" height="24" viewBox="0 0 24 24" xmlns="http://www.w3.org/2000/svg"><g fill="none" fill-rule="evenodd"><path d="M0 0h24v24H0z"/><path d="M4.953 14.303l-1.906-.606C4.65 8.644 7.673 6 12 6c4.327 0 7.349 2.644 8.953 7.697l-1.906.606C17.688 10.023 15.377 8 12 8s-5.688 2.022-7.047 6.303zM12 8a1 1 0 100-2 1 1 0 000 2z" fill="#335EEA" opacity=".3"/><path d="M5.732 6h3.439a3.001 3.001 0 015.658 0h3.439a2 2 0 110 2h-3.439a3.001 3.001 0 01-5.658 0H5.732a2 2 0 110-2zM12 8a1 1 0 100-2 1 1 0 000 2zM4 19a3 3 0 110-6 3 3 0 010 6zm0-2a1 1 0 100-2 1 1 0 000 2zm16 2a3 3 0 110-6 3 3 0 010 6zm0-2a1 1 0 100-2 1 1 0 000 2z" fill="#335EEA"/></g></svg>
